X:1
T: Gladstone
C:J. Scott Skinner
R:Reel
Q: 232
K:A
M:4/4
L:1/8
|:d|cA dB ef ga|A1/2A1/2A cA BG Ed|cA dB ef ga|ec dB A2 Ad|
cA dB ef ga|A1/2A1/2A cA BG Ed|cA dB ef ga|ec dB A2 Ag|
af ba ge ag|fd gf ec fe|dB ed cA dc|BA GA Be fg|
af ba ge ag|fd gf ec fe|dB ed ce af|ec dB A3:|
